X:1
T:Title
%%score { ( 1 3 ) | 2 }
L:1/8
Q:1/4=116
M:4/4
K:Ab
V:1 treble nm="Grand Piano"
V:3 treble 
V:2 bass 
V:1
 [Ec]3 [DB] [CA]2 [Ec]2 | [FB]2 [FA]2 [DF]2 [FA]2 | [CE]2 [CA]2 [Ec]2 [EA]2 | [EB]6 z2 | %4
w: J.~H.~Fillmore * * *||||
 [Ec]3 [DB] [CA]2 [Ec]2 | [FB]2 [FA]2 [DF]2 [FA]2 | E2 A2 c2 B2 | [CA]6 z2 | c3 B A2 c2 | e8 | %10
w: ||||||
 [Ec]3 [DB] [CA]2 [Ec]2 | B8 | [Ec]3 [DB] [CA]2 [Ec]2 | [FB]2 [FA]2 [DF]2 [FA]2 | E2 A2 c2 B2 | %15
w: |||||
 [CA]6 z2 |] %16
w: |
V:2
 [A,,A,]3 [A,,E,] [A,,E,]2 [A,,A,]2 | [D,A,]2 [D,A,]2 [D,A,]2 [D,A,]2 | %2
 [A,,A,]2 [A,,A,]2 [A,,A,]2 [C,A,]2 | [E,G,]6 z2 | [A,,A,]3 [A,,E,] [A,,E,]2 [A,,A,]2 | %5
 [D,A,]2 [D,A,]2 [D,A,]2 [D,A,]2 | [E,A,C]2 [E,A,C]2 [E,A,E]2 [E,G,D]2 | [A,,A,]6 z2 | %8
 [A,E]3 [A,D] [A,C]2 [A,E]2 | [A,CA]2[K:bass] [E,B,]2 [A,C]4 | [A,,A,]3 [A,,E,] [A,,E,]2 [A,,A,]2 | %11
 [E,G,E]2 [B,,F,]2 [E,G,]4 | [A,,A,]3 [A,,E,] [A,,E,]2 [A,,A,]2 | [D,A,]2 [D,A,]2 [D,A,]2 [D,A,]2 | %14
 [E,A,C]2 [E,A,C]2 [E,A,E]2 [E,G,D]2 | [A,,E,]6 z2 |] %16
V:3
 x8 | x8 | x8 | x8 | x8 | x8 | x8 | x8 | x8 | z2 G2 A4 | x8 | z2 =D2 E4 | x8 | x8 | x8 | x8 |] %16

